X:8
T:Ike Bradley's Drum
C:Roy Watrous, 1970
S:The Watrous Book, 1992
M:6/8
L:1/8
Q:1/8=270
K:G
%%MIDI program 72
%%MIDI transpose 8
%%MIDI ratio 3 1
.g2z g3|efg d3|GBd dBd|eag fef|.g2b g3|
efg d3|GBd eag|fef g3::b2b g2g|efg d3|
GBd dBd|efg a3|b2b Tg3|efg d3|GBd eag|fef g3:|]

